X:1
T:Title
%%score { 1 | 2 }
L:1/8
M:3/4
K:D
V:1 treble nm="Grand Piano"
V:2 bass 
V:1
 z2 z2[Q:1/4=100] [DF][FA] | [FA]3 F DE | F2 F2 [FA][FA] | [GB]3 [Bd] [Ac][GB] |[M:2/4] [FA]4 | %5
[M:1/4] [GB][FA] |[M:3/4] G3 G [FA][EG] | [EG]2 [DF]2 [EG]F | Ec c2 B2 |[M:2/4] [CA]4 | %10
[M:1/4] [GB][FA] |[M:3/4] [EG]3 [FA] [GB][Gc] | [Fd]2 [FA]2 [GB][FA] | G3 A [GB][Gc] | %14
[M:2/4] [Fd]4 |[M:1/4] [Fd][Fd] |[M:3/4] e3 d cB | [GB]2 [FA]2 [DF][DA] | %18
 [CA][CG] [A,CF]2[K:bass] [G,CE]2 |[M:2/4] [F,D]4 |[M:1/4][K:treble] [A,FA][Fd] | %21
[M:3/4] [Gc]2 [CE]2 [EG][CGB] | [DFA]2 [F,D]2 [A,DF][DA] | [CA]3 [CE] [DF][EG] |[M:2/4] [DF]4 | %25
[M:1/4] [FA][Fd] |[M:3/4] [Fd]2 [DF]2 [FA][Fd] | d2 E2 cB | A3 F [CE][CE] |[M:2/4] D4 |] %30
V:2
 z2 z2 [D,A,][D,D] | [D,D]3 [D,A,D] [F,A,][A,C] | [D,A,D]2 [D,A,D]2 [D,D][D,D] | %3
 [G,D]3 [G,D] [G,D][G,D] |[M:2/4] [D,D]4 |[M:1/4] [D,D][D,D] |[M:3/4] [A,E]3 [A,E] [A,,A,][A,,A,] | %7
 [D,A,]2 [D,A,]2 [C,A,][D,A,D] | [D,A,C][E,A,E] [E,^G,E]2 [E,G,D]2 |[M:2/4] [A,,A,]4 | %10
[M:1/4] [A,,A,][A,,A,] |[M:3/4] [A,,A,]3 [A,,A,] [A,,A,][A,,A,] | [D,A,]2 [D,D]2 [D,D][D,D] | %13
 [A,E]3 [A,F][K:bass] [A,,A,][A,,A,] |[M:2/4] [D,A,]4 |[M:1/4] [D,=C][D,C] | %16
[M:3/4][K:treble] [G,B,G]3 [G,B,G] [G,CG][G,DG] | [D,D]2 [D,D]2 [D,A,][D,F,] | %18
 [A,,E,][A,,E,] A,,2 A,,2 |[M:2/4] D,4 |[M:1/4] D,[D,A,] |[M:3/4] [A,,A,]2 [A,,A,]2 [A,,A,]A,, | %22
 D,2 D,2 D,[D,F,] | [A,,E,]3 [A,,A,] [A,,A,][A,,A,] |[M:2/4] [D,A,]4 |[M:1/4] [D,D][D,A,] | %26
[M:3/4] [D,A,]2 [D,A,]2 [D,D][D,=C] | [G,B,E]2 [G,B,]2[K:treble] [^G,D=F][G,DF] | %28
 [A,DF]3[K:bass] [A,D] [A,,G,][A,,G,] |[M:2/4] [D,F,]4 |] %30

